X: 1
T:Polka
R:Polka
M:2/4
O:France
K:D
D2E2 F2EF|D2E2F4|A2F2 D2F2|E4E4|\
D2E2 F2EF|D2E2F4|A2F2 D2F2|E4D4:|\
A2Bc d2cB|A2B2 B2A2|A2Bc d2cB|A2G2 F2G2|\
A4B3A|G2F2 E2FG|A2F2 D2F2|E4D4:|
